!!!!SEGMENT: Ric2010-Pater_noster.krn
!!!id: Ric2010
!!!AGN: Motet
!!!voices: 4
!!!COM: Jean Richafort
!!!OTL: Pater noster
**kern	**text	**kern	**text	**kern	**text	**kern	**text	**kern	**text
*part5	*part5	*part4	*part4	*part3	*part3	*part2	*part2	*part1	*part1
*staff5	*staff5	*staff4	*staff4	*staff3	*staff3	*staff2	*staff2	*staff1	*staff1
*I"Bassus	*	*I"Tenor II	*	*I"Tenor I	*	*I"Altus	*	*I"Superius	*
*I'B	*	*I'T. II	*	*I'T. I	*	*I'A	*	*I'S	*
*clefF4	*	*clefGv2	*	*clefGv2	*	*clefGv2	*	*clefG2	*
*k[]	*	*k[]	*	*k[]	*	*k[]	*	*k[]	*
*C:	*	*C:	*	*C:	*	*C:	*	*C:	*
*M2/1	*	*M2/1	*	*M2/1	*	*M2/1	*	*M2/1	*
*met(C|)	*	*met(C|)	*	*met(C|)	*	*met(C|)	*	*met(C|)	*
!!section: Prima pars: Pater noster
!!!OMD: Prima pars: Pater poster
=1	=1	=1	=1	=1	=1	=1	=1	=1	=1
!	!	!	!	!	!	!LO:TX:a:t=Canon&colon; altus/tenor I at the fifth	!	!	!
0r	.	0F	Pa-	0r	.	0r	.	0r	.
=2	=2	=2	=2	=2	=2	=2	=2	=2	=2
0r	.	1G	-ter	0r	.	0r	.	1r	.
.	.	[1A	nos-	.	.	.	.	(1c	Pa-
=3	=3	=3	=3	=3	=3	=3	=3	=3	=3
0F	Pa-	2A]	.	0r	.	0r	.	1c)	.
.	.	2A	-ter	.	.	.	.	.	.
.	.	1A	qui	.	.	.	.	1d	-ter
=4	=4	=4	=4	=4	=4	=4	=4	=4	=4
1G	-ter	1B	es	0r	.	0r	.	1.e	no-
[1A	no-	[1c	in	.	.	.	.	.	.
.	.	.	.	.	.	.	.	2e	-ster,
=5	=5	=5	=5	=5	=5	=5	=5	=5	=5
2A]	.	2c]	.	0r	.	0c	Pa-	2e	qui
2A	-ster	2F	ce-	.	.	.	.	2.f	es
1A	qui	1F	-lis	.	.	.	.	.	.
.	.	.	.	.	.	.	.	4e	in
.	.	.	.	.	.	.	.	[2a	ce-
=6	=6	=6	=6	=6	=6	=6	=6	=6	=6
1B-i	es	2r	.	0r	.	1d	-ter	2a]	.
.	.	2G	sanc-	.	.	.	.	2g	.
[1A	in	[1c	-ti-	.	.	[1e	nos-	1a	-lis
=7	=7	=7	=7	=7	=7	=7	=7	=7	=7
2A]	.	2c]	.	0r	.	2e]	.	2r	.
2AA	ce-	2c	-fi-	.	.	2e	-ter	2a	sanc-
1AA	-lis	2.A	-ce-	.	.	1e	qui	(1cc	-ti-
.	.	4B	.	.	.	.	.	.	.
=8	=8	=8	=8	=8	=8	=8	=8	=8	=8
0r	.	2c	-tur	0F	Pa-	1.f	es	2cc)	.
.	.	2.d	no-	.	.	.	.	2b	.
.	.	.	.	.	.	.	.	1a	-fi-
.	.	4c	.	.	.	.	.	.	.
.	.	[2c	-men	.	.	2e	in	.	.
=9	=9	=9	=9	=9	=9	=9	=9	=9	=9
1r	.	2c]	.	1G	-ter	1d	ce-	2.g	-ca-
.	.	2B	tu-	.	.	.	.	.	.
.	.	.	.	.	.	.	.	4f	.
1AA	sanc-	4c	.	[1A	nos-	1c	-lis	2e	.
.	.	4B	.	.	.	.	.	.	.
.	.	4A	.	.	.	.	.	[2a	.
.	.	4G	.	.	.	.	.	.	.
=	=	=	=	=	=	=	=	=	=
*	*	*M3/3%2	*	*	*	*	*	*	*
*	*	*met(3)	*	*	*	*	*	*	*
*	*	*Xtuplet	*	*	*	*	*	*	*
1.D	-ti-	3F	.	2A]	.	0r	.	4a]	.
.	.	.	.	.	.	.	.	4g	.
.	.	3G	.	.	.	.	.	.	.
.	.	.	.	2A	-ter	.	.	4f	.
.	.	3A	.	.	.	.	.	.	.
.	.	.	.	.	.	.	.	4e	.
=-	=-	=-	=-	=-	=-	=-	=-	=-	=-
*	*	*tuplet	*	*	*	*	*	*	*
*	*	*M2/1	*	*	*	*	*	*	*
*	*	*met(C|)	*	*	*	*	*	*	*
.	.	2D	-um	1A	qui	.	.	1f	-tur,
2D	-fi-	[2d	um,	.	.	.	.	.	.
=10	=10	=10	=10	=10	=10	=10	=10	=10	=10
2.GG	-ce-	2d]	.	1.B-i	es	0r	.	2r	.
.	.	2d	-sanc-	.	.	.	.	1g	sanc-
4AA	.	.	.	.	.	.	.	.	.
4BB	.	1d	-ti-	.	.	.	.	.	.
4C	.	.	.	.	.	.	.	.	.
2D	.	.	.	2A	in	.	.	2f	-ti-
=11	=11	=11	=11	=11	=11	=11	=11	=11	=11
1GG	-tur	1B	-fi-	1G	ce-	2r	.	1g	-fi-
.	.	.	.	.	.	1d	sanc-	.	.
1r	.	1A	ce-	1F	-lis	.	.	1a	-ce-
.	.	.	.	.	.	2c	-ti-	.	.
=12	=12	=12	=12	=12	=12	=12	=12	=12	=12
2r	.	2D	-tur	0r	.	1d	-fi-	1f	-tur
1D	no-	2A	.	.	.	.	.	.	.
.	.	2B	no-	.	.	1e	-ce-	2r	.
2C	-men	2c	-men	.	.	.	.	[2g	no-
=13	=13	=13	=13	=13	=13	=13	=13	=13	=13
1D	tu-	1A	tu-	0r	.	1d	-tur	2g]	.
.	.	.	.	.	.	.	.	2f	.
1E	.	1G	-um	.	.	2r	.	2.g	.
.	.	.	.	.	.	2c	no-	.	.
.	.	.	.	.	.	.	.	4a	.
=14	=14	=14	=14	=14	=14	=14	=14	=14	=14
2D	-um,	0r	.	2r	.	2d	.	4b	.
.	.	.	.	.	.	.	.	4a	.
2C	no-	.	.	1G	sanc-	2.e	-men	2cc	.
1D	-men	.	.	.	.	.	.	2b	.
.	.	.	.	.	.	4d	.	.	.
.	.	.	.	2F	-ti-	[2d	tu-	[2a	.
=15	=15	=15	=15	=15	=15	=15	=15	=15	=15
1E	tu-	1r	.	1G	-fi-	2d]	.	4a]	.
.	.	.	.	.	.	.	.	4g	.
.	.	.	.	.	.	2c#i	.	1g	-men
1D	-um	2r	.	1A	-ce-	1d	-um	.	.
.	.	2A	ad-	.	.	.	.	2f#i	tu-
=16	=16	=16	=16	=16	=16	=16	=16	=16	=16
2r	.	2B	-ve-	1G	-tur	0r	.	1g	-um,
2E	ad-	2G	-ni-	.	.	.	.	.	.
2F	-ve-	2.A	-at	2r	.	.	.	1r	.
2D	-ni-	.	.	2F	no-	.	.	.	.
.	.	4B	.	.	.	.	.	.	.
=17	=17	=17	=17	=17	=17	=17	=17	=17	=17
2E	-at	2c	.	2G	.	1r	.	0r	.
2.F	re-	2.d	re-	2.A	-men	.	.	.	.
.	.	.	.	.	.	2r	.	.	.
4C	.	4c	.	4G	.	.	.	.	.
2E	.	[2c	-gnum	[2G	tu-	2e	ad-	.	.
=18	=18	=18	=18	=18	=18	=18	=18	=18	=18
1D	-gnum	2c]	.	2G]	.	1f	-ve-	1r	.
.	.	2B	.	2F	.	.	.	.	.
[1C	tu-	2c	tu-	1G	-um	1e	-ni-	2r	.
.	.	4B	.	.	.	.	.	2g	ad-
.	.	4A	.	.	.	.	.	.	.
=19	=19	=19	=19	=19	=19	=19	=19	=19	=19
2C]	.	2G	.	0r	.	0e	-at	1.cc	-ve-
2.AA	.	2A	.	.	.	.	.	.	.
.	.	2.E	.	.	.	.	.	.	.
4BB	.	.	.	.	.	.	.	.	.
4C	.	.	.	.	.	.	.	2cc	-ni-
4D	.	4F	.	.	.	.	.	.	.
=20	=20	=20	=20	=20	=20	=20	=20	=20	=20
2E	.	2G	.	1r	.	2r	.	2b	-at
2AA	.	2A	.	.	.	2c	re-	2.cc	re-
1AA	-um	2E	.	2r	.	1e	-gnum	.	.
.	.	.	.	.	.	.	.	4b	.
.	.	2C	.	2A	ad-	.	.	[2a	-gnum
=21	=21	=21	=21	=21	=21	=21	=21	=21	=21
1r	.	2.G	.	1B	-ve-	1d	tu-	2a]	.
.	.	.	.	.	.	.	.	2g	tu-
.	.	4F	.	.	.	.	.	.	.
1AA	fi-	1E	-um,	1A	-ni-	1c	-um,	[1a	-um,
=22	=22	=22	=22	=22	=22	=22	=22	=22	=22
2.AA	-at	2r	.	0A	-at	0r	.	1a]	.
.	.	2F	fi-	.	.	.	.	.	.
4BB	.	.	.	.	.	.	.	.	.
2C	vo-	2E	-at	.	.	.	.	1r	.
[2D	-lun-	2D	vo-	.	.	.	.	.	.
=23	=23	=23	=23	=23	=23	=23	=23	=23	=23
2D]	.	2.F	-lun-	2r	.	1r	.	0r	.
4C	.	.	.	2F	re-	.	.	.	.
4BB	.	8EL	.	.	.	.	.	.	.
.	.	8DJ	.	.	.	.	.	.	.
2.AA	-tas	2C	.	1A	-gnum	1e	fi-	.	.
.	.	2c	-tas	.	.	.	.	.	.
4BB	.	.	.	.	.	.	.	.	.
=24	=24	=24	=24	=24	=24	=24	=24	=24	=24
2C	tu-	2c	tu-	1G	tu-	2e	-at	1r	.
2GG	.	2B	.	.	.	2d	vo-	.	.
1D	-a,	2d	-a,	1F	-um,	[1f	-lun-	2r	.
.	.	2D	fi-	.	.	.	.	2a	fi-
=25	=25	=25	=25	=25	=25	=25	=25	=25	=25
0r	.	2D	-at	0r	.	2f]	.	2a	-at
.	.	2E	vo-	.	.	2e	-tas	2g	vo-
.	.	2F	-lun-	.	.	1d	tu-	2a	-lun-
.	.	2G	-tas	.	.	.	.	2b	-tas
=26	=26	=26	=26	=26	=26	=26	=26	=26	=26
1AA	fi-	2.A	tu-	1r	.	1c	-a,	2cc	tu-
.	.	.	.	.	.	.	.	1a	.
.	.	4G	.	.	.	.	.	.	.
2AA	-at	4A	.	1A	fi-	1r	.	.	.
.	.	4B	.	.	.	.	.	.	.
2AA	vo-	[2c	.	.	.	.	.	4g	.
.	.	.	.	.	.	.	.	4f	.
=27	=27	=27	=27	=27	=27	=27	=27	=27	=27
4C	.	2c]	.	2A	-at	0r	.	1e	.
4D	.	.	.	.	.	.	.	.	.
4E	.	2B	.	2G	vo-	.	.	.	.
4F	.	.	.	.	.	.	.	.	.
2G	-lun-	4G	.	[1B	-lun-	.	.	1d	-a,
.	.	4A	.	.	.	.	.	.	.
[2GG	-tas	4B	.	.	.	.	.	.	.
.	.	4c	.	.	.	.	.	.	.
=28	=28	=28	=28	=28	=28	=28	=28	=28	=28
2GG]	.	2d	.	2B]	.	2r	.	0r	.
2.C	tu-	1c	.	2A	-tas	2e	fi-	.	.
.	.	.	.	1G	tu-	2e	-at	.	.
4BB	.	.	.	.	.	.	.	.	.
2GG	.	2B	.	.	.	2d	vo-	.	.
=29	=29	=29	=29	=29	=29	=29	=29	=29	=29
1D	-a,	2d	-a,	1F	-a,	1.f	-lun-	2r	.
.	.	2D	fi-	.	.	.	.	2a	fi-
1r	.	2D	-at	1r	.	.	.	2a	-at
.	.	2E	vo-	.	.	2e	-tas	2g	vo-
=30	=30	=30	=30	=30	=30	=30	=30	=30	=30
1r	.	2F	-lun	0r	.	1d	tu-	2a	-lun-
.	.	2G	tas	.	.	.	.	2b	.
1AA	fi-	2.A	tu-	.	.	1c	-a,	2cc	-tas
.	.	.	.	.	.	.	.	[2a	tu-
.	.	4G	.	.	.	.	.	.	.
=31	=31	=31	=31	=31	=31	=31	=31	=31	=31
2AA	-at	4A	.	2r	.	0r	.	2a]	.
.	.	4B	.	.	.	.	.	.	.
2AA	vo-	1c	.	2A	fi-	.	.	4g	.
.	.	.	.	.	.	.	.	4f	.
4C	.	.	.	2A	-at	.	.	1e	.
4D	.	.	.	.	.	.	.	.	.
4E	.	2B	.	2G	vo-	.	.	.	.
4F	.	.	.	.	.	.	.	.	.
=32	=32	=32	=32	=32	=32	=32	=32	=32	=32
2.G	-lun-	4G	.	1.B	-lun-	1r	.	0d	-a,
.	.	4A	.	.	.	.	.	.	.
.	.	4B	.	.	.	.	.	.	.
8FL	.	4c	.	.	.	.	.	.	.
8EJ	.	.	.	.	.	.	.	.	.
2D	.	2d	.	.	.	2r	.	.	.
2F	-tas	2D	-a,	2A	-tas	[2d	si-	.	.
=33	=33	=33	=33	=33	=33	=33	=33	=33	=33
1E	tu-	2r	.	1G	tu-	2d]	.	2r	.
.	.	2G	si-	.	.	2c	-cut	2e	si-
1D	-a,	2A	-cut	1F	-a,	1d	in	2f	-cut
.	.	2F	in	.	.	.	.	2f	in
=34	=34	=34	=34	=34	=34	=34	=34	=34	=34
2r	.	2.c	ce-	0r	.	1e	ce-	1g	ce-
2C	si-	.	.	.	.	.	.	.	.
.	.	4B	.	.	.	.	.	.	.
2D	-cut	4A	.	.	.	2d	-lo	2f	-lo
.	.	4G	.	.	.	.	.	.	.
2AA	in	[2A	.	.	.	2c	et	2e	et
=35	=35	=35	=35	=35	=35	=35	=35	=35	=35
1D	ce-	2A]	.	1r	.	1d	in	2f	in
.	.	4G	.	.	.	.	.	2f	ter-
.	.	4F	.	.	.	.	.	.	.
2C	-lo	2.c	-lo	2r	.	1e	ter-	1g	-ra,
2C	et	.	.	[2G	si-	.	.	.	.
.	.	4B	.	.	.	.	.	.	.
=36	=36	=36	=36	=36	=36	=36	=36	=36	=36
2D	in	1A	et	2G]	.	[0dl	-ra	2r	.
2D	ter-	.	.	2F	-cut	.	.	2a	si-
1GG	-ra,	2G	in	1G	in	.	.	2b	-cut
.	.	[2D	ter-	.	.	.	.	[2g	in
=37	=37	=37	=37	=37	=37	=37	=37	=37	=37
2r	.	4D]	.	1A	ce-	0d_	.	2g]	.
.	.	4E	.	.	.	.	.	.	.
2D	in	2F	.	.	.	.	.	2f	ce-
2GG	ce-	[1D	-ra	2G	-lo	.	.	2g	-lo
2D	-lo	.	.	2F	et	.	.	[2a	et
=38	=38	=38	=38	=38	=38	=38	=38	=38	=38
2BB	et	2D]	.	1G	in	0d_	.	4a]	.
.	.	.	.	.	.	.	.	4g	.
2GG	in	2.d	et	.	.	.	.	1g	in
1D	ter-	.	.	1A	ter-	.	.	.	.
.	.	4c	.	.	.	.	.	.	.
.	.	2A	in	.	.	.	.	2f#i	ter-
=39	=39	=39	=39	=39	=39	=39	=39	=39	=39
[0GGl	-ra.	2.B	ter-	[0Gl	-ra.	0d_	.	[0gl	-ra.
.	.	4c	.	.	.	.	.	.	.
.	.	1B	-ra.	.	.	.	.	.	.
=	=	=	=	=	=	=	=	=	=
00GG]	.	00B	.	00G]	.	00d]	.	00g]	.
=||	=||	=||	=||	=||	=||	=||	=||	=||	=||
*M2/1	*	*M2/1	*	*M2/1	*	*M2/1	*	*M2/1	*
*met(C|)	*	*met(C|)	*	*met(C|)	*	*met(C|)	*	*met(C|)	*
!!section: Secunda pars: Panem nostrum
!!!OMD: Secunda pars: Panem nostrum
!	!	!	!	!	!	!LO:TX:a:t=Canon&colon; altus/tenor I at the fifth	!	!	!
1.D	Pa-	1.A	Pa-	0r	.	0F	Pa-	0r	.
2D	-nem	2B	-nem	.	.	.	.	.	.
=40	=40	=40	=40	=40	=40	=40	=40	=40	=40
1E	no-	1c	no-	0r	.	1G	-nem	0r	.
2D	-strum	2d	-strum	.	.	[1A	no-	.	.
[2F	quo-	[2D	quo-	.	.	.	.	.	.
=41	=41	=41	=41	=41	=41	=41	=41	=41	=41
4F]	.	4D]	.	0r	.	1A]	.	0r	.
4E	.	4E	.	.	.	.	.	.	.
2D	-ti-	2F	-ti-	.	.	.	.	.	.
2C	-di-	2E	-di-	.	.	1A	-strum	.	.
2D	-a-	2F	-a-	.	.	.	.	.	.
=42	=42	=42	=42	=42	=42	=42	=42	=42	=42
0AA	-num	1E	-num,	0c	Pa-	1A	quo-	1.e	Pa-
.	.	1r	.	.	.	2A	-ti-	.	.
.	.	.	.	.	.	2A	-di-	2f	-nem
=43	=43	=43	=43	=43	=43	=43	=43	=43	=43
1r	.	1G	quo-	1d	-nem	1B	-a-	1g	no-
1AA	da	2E	.	[1e	no-	1A	-num	1a	-strum
.	.	[2A	-ti-	.	.	.	.	.	.
=44	=44	=44	=44	=44	=44	=44	=44	=44	=44
2.AA	no-	4A]	.	1e]	.	2r	.	1.cc	quo-
.	.	4G	.	.	.	.	.	.	.
.	.	2.E	-di-	.	.	2A	da	.	.
4BB	.	.	.	.	.	.	.	.	.
4C	.	.	.	1e	-strum	2A	no-	.	.
4D	.	4F	.	.	.	.	.	.	.
2E	.	2G	-a-	.	.	2G	-bis	2b	-ti-
=45	=45	=45	=45	=45	=45	=45	=45	=45	=45
1AA	-bis	1C	-num	1e	quo-	1A	ho-	2cc	-di-
.	.	.	.	.	.	.	.	2cc	-a-
1E	ho-	2r	.	2e	-ti-	1G	-di-	1b	-num
.	.	2G	da	2e	-di-	.	.	.	.
=46	=46	=46	=46	=46	=46	=46	=46	=46	=46
1D	-di-	2A	.	1f	-a-	1F	-e,	1r	.
.	.	2B	.	.	.	.	.	.	.
[1C	-e,	[1c	no-	1e	-num	1r	.	2r	.
.	.	.	.	.	.	.	.	2g	da
=47	=47	=47	=47	=47	=47	=47	=47	=47	=47
1C]	.	2c]	.	2r	.	0r	.	2.g	no-
.	.	4B	.	2e	da	.	.	.	.
.	.	4A	.	.	.	.	.	4a	.
1r	.	2G	.	2e	no-	.	.	4b	.
.	.	.	.	.	.	.	.	4cc	.
.	.	2B	-bis	2d	-bis	.	.	[2dd	-bis
=48	=48	=48	=48	=48	=48	=48	=48	=48	=48
0r	.	2c	ho-	1e	ho-	1r	.	4dd]	.
.	.	.	.	.	.	.	.	4cc	.
.	.	2C	-di-	.	.	.	.	1cc	ho-
.	.	2.G	-e,	1d	-di-	2r	.	.	.
.	.	.	.	.	.	[2G	et	2b	-di-
.	.	4F	.	.	.	.	.	.	.
=49	=49	=49	=49	=49	=49	=49	=49	=49	=49
1.C	et	4E	.	1c	-e,	2G]	.	0cc	-e
.	.	4D	.	.	.	.	.	.	.
.	.	2C	.	.	.	2G	di-	.	.
.	.	2r	.	1r	.	1G	-mit-	.	.
2C	di-	2E	et	.	.	.	.	.	.
=50	=50	=50	=50	=50	=50	=50	=50	=50	=50
2C	-mit-	2E	di-	0r	.	1A	-te	1r	.
2.D	-te	2.F	-mit-	.	.	.	.	.	.
.	.	.	.	.	.	[1B	no-	2r	.
4C	.	4D	.	.	.	.	.	.	.
4BB	.	[2G	-te	.	.	.	.	2g	et
4AA	.	.	.	.	.	.	.	.	.
=51	=51	=51	=51	=51	=51	=51	=51	=51	=51
2GG	.	4G]	.	1r	.	1B]	.	2g	di-
.	.	4F	.	.	.	.	.	.	.
2.G	no-	2G	no-	.	.	.	.	2g	-mit-
.	.	1D	-bis,	2r	.	1A	-bis	1a	-te
8F#iL	.	.	.	.	.	.	.	.	.
8EJ	.	.	.	.	.	.	.	.	.
2F#i	.	.	.	[2d	et	.	.	.	.
=52	=52	=52	=52	=52	=52	=52	=52	=52	=52
1G	-bis,	2r	.	2d]	.	0r	.	2.b	no-
.	.	1G	et	2d	di-	.	.	.	.
.	.	.	.	.	.	.	.	4a	.
1r	.	.	.	1d	-mit-	.	.	4g	.
.	.	.	.	.	.	.	.	4f	.
.	.	2G	di-	.	.	.	.	[2g	.
=53	=53	=53	=53	=53	=53	=53	=53	=53	=53
1C	et	2G	-mit-	1e	-te	0r	.	4g]	.
.	.	.	.	.	.	.	.	4f	.
.	.	2.A	-te	.	.	.	.	2e	.
[1D	di-	.	.	[1f	no-	.	.	1d	-bis
.	.	4G	.	.	.	.	.	.	.
.	.	4F	.	.	.	.	.	.	.
.	.	4E	.	.	.	.	.	.	.
=54	=54	=54	=54	=54	=54	=54	=54	=54	=54
2D]	.	2D	.	1f]	.	1r	.	2r	.
2D	-mit-	1d	no-	.	.	.	.	2a	de-
1AA	-te	.	.	1e	-bis	2r	.	2.a	-bi-
.	.	2c#i	.	.	.	[2A	de-	.	.
.	.	.	.	.	.	.	.	4g	.
=55	=55	=55	=55	=55	=55	=55	=55	=55	=55
1D	no-	0d	-bis	0r	.	2A]	.	4f	.
.	.	.	.	.	.	.	.	4e	.
.	.	.	.	.	.	2A	-bi-	2f	-ta
2GG	-bis	.	.	.	.	2G	-ta	2.g	no-
[2G	de-	.	.	.	.	[2B	no-	.	.
.	.	.	.	.	.	.	.	4f	.
=56	=56	=56	=56	=56	=56	=56	=56	=56	=56
2G]	.	1r	.	0r	.	2B]	.	4e	.
.	.	.	.	.	.	.	.	4d	.
2F	.	.	.	.	.	2A	.	1d	.
2.E	-bi-	2r	.	.	.	1G	.	.	.
.	.	2G	de-	.	.	.	.	2c	.
4F	.	.	.	.	.	.	.	.	.
=57	=57	=57	=57	=57	=57	=57	=57	=57	=57
1D	-ta	2A	-bi-	1r	.	1F	-stra,	1f	.
.	.	2B	-ta	.	.	.	.	.	.
[1C	no-	2.c	.	2r	.	1r	.	2e	.
.	.	.	.	[2e	di-	.	.	2c	.
.	.	8BL	.	.	.	.	.	.	.
.	.	8AJ	.	.	.	.	.	.	.
=58	=58	=58	=58	=58	=58	=58	=58	=58	=58
1C]	.	2G	.	2e]	.	0r	.	1g	-stra
.	.	2c	.	2e	-bi-	.	.	.	.
2.D	.	2A	.	2d	-ta	.	.	1r	.
.	.	[2d	.	[2f	no-	.	.	.	.
4C	.	.	.	.	.	.	.	.	.
=59	=59	=59	=59	=59	=59	=59	=59	=59	=59
2AA	.	4d]	.	2f]	.	2r	.	2r	.
.	.	4c	.	.	.	.	.	.	.
2C	.	1c	no-	2e	.	2G	si-	2g	si-
1GG	-stra,	.	.	1d	.	2G	-cut	2g	-cut
.	.	2B	.	.	.	2G	et	[2g	et
=60	=60	=60	=60	=60	=60	=60	=60	=60	=60
2r	.	2c	-stra,	1c	stra,	0A	nos	2g]	.
2C	si-	2e	si-	.	.	.	.	4f#i	.
.	.	.	.	.	.	.	.	4e	.
2D	-cut	2.d	-cut	1r	.	.	.	1f#i	nos
2D	et	.	.	.	.	.	.	.	.
.	.	4c	.	.	.	.	.	.	.
=61	=61	=61	=61	=61	=61	=61	=61	=61	=61
2.E	nos	2B	et	0r	.	1G	di-	2.g	di-
.	.	2.c	nos	.	.	.	.	.	.
4D	.	.	.	.	.	.	.	4f	.
2C	di-	.	.	.	.	[1A	-mit-	2e	-mit-
.	.	4B	.	.	.	.	.	.	.
[2D	-mit	4A	.	.	.	.	.	2f	-ti-
.	.	4G	.	.	.	.	.	.	.
=62	=62	=62	=62	=62	=62	=62	=62	=62	=62
2D]	.	2F	.	2r	.	2A]	.	1d	-mus
4GG	.	2G	di-	2d	si-	2G	-ti-	.	.
4AA	.	.	.	.	.	.	.	.	.
4BB	.	2D	-mit-	2d	-cut	2G	-mus	1r	.
4C	.	.	.	.	.	.	.	.	.
2D	.	2A	-ti-	2d	et	2F	de-	.	.
=63	=63	=63	=63	=63	=63	=63	=63	=63	=63
2C	ti-	1.c	-mus	0e	nos	2G	-bi-	0r	.
2AA	-mus	.	.	.	.	1A	-to-	.	.
1C	de-	.	.	.	.	.	.	.	.
.	.	2c	de-	.	.	2G	-ri-	.	.
=64	=64	=64	=64	=64	=64	=64	=64	=64	=64
1D	-bi-	2A	-bi-	1d	di-	1F	-bus	1r	.
.	.	2B	.	.	.	.	.	.	.
2.C	-to-	[1c	-to-	[1e	-mit-	1G	no-	2r	.
.	.	.	.	.	.	.	.	2g	de-
4D	.	.	.	.	.	.	.	.	.
=65	=65	=65	=65	=65	=65	=65	=65	=65	=65
4E	.	2c]	.	2e]	.	1G	-stris,	2g	-bi-
4F	.	.	.	.	.	.	.	.	.
2G	.	2B	-ri-	2d	-ti-	.	.	2g	-to-
2D	.	2A	-bus	2d	-mus	1r	.	2.a	-ri-
[2F	.	4F	.	2c	de-	.	.	.	.
.	.	4G	.	.	.	.	.	4g	.
=66	=66	=66	=66	=66	=66	=66	=66	=66	=66
4F]	.	4A	.	2d	-bi-	0r	.	2f	-bus
4E	.	4B	.	.	.	.	.	.	.
2C	.	4c	.	1e	-to-	.	.	2.g	no-
.	.	4A	.	.	.	.	.	.	.
2G	.	4B	.	.	.	.	.	.	.
.	.	4c	.	.	.	.	.	4e	.
2D	-ri-	2d	.	2d	-ri-	.	.	[2a	-stris
=67	=67	=67	=67	=67	=67	=67	=67	=67	=67
1E	-bus	1G	no-	1c	-bus	0r	.	4a]	.
.	.	.	.	.	.	.	.	4g	.
.	.	.	.	.	.	.	.	1g	et
1D	no-	1A	.	1d	no-	.	.	.	.
.	.	.	.	.	.	.	.	2f#i	ne
=68	=68	=68	=68	=68	=68	=68	=68	=68	=68
1GG	-stris	1G	-stris,	1d	-stris,	2r	.	2.g	nos
.	.	.	.	.	.	1G	et	.	.
.	.	.	.	.	.	.	.	8fL	.
.	.	.	.	.	.	.	.	8eJ	.
1r	.	2r	.	1r	.	.	.	2d	.
.	.	[2d	et	.	.	2D	ne	[2a	in-
=69	=69	=69	=69	=69	=69	=69	=69	=69	=69
0r	.	2d]	.	0r	.	2F	nos	4a]	.
.	.	.	.	.	.	.	.	4g	.
.	.	2B	ne	.	.	2G	in-	1g	-du-
.	.	2.c	nos	.	.	1A	-du-	.	.
.	.	.	.	.	.	.	.	2f#i	-cas
.	.	4d	.	.	.	.	.	.	.
=70	=70	=70	=70	=70	=70	=70	=70	=70	=70
2r	.	2.e	.	0r	.	2G	-cas	2.g	in
1C	et	.	.	.	.	2G	in	.	.
.	.	4d	.	.	.	.	.	4f	.
.	.	2c	.	.	.	2G	ten-	4g	.
.	.	.	.	.	.	.	.	4a	.
2GG	ne	2d	in-	.	.	2G	-ta-	[2g	ten-
=71	=71	=71	=71	=71	=71	=71	=71	=71	=71
2.BB	nos	1B	-du-	2r	.	1G	-ti-	2g]	-ta-
.	.	.	.	1d	et	.	.	4f	.
4C	.	.	.	.	.	.	.	4e	.
1D	in-	1A	-cas	.	.	1F	-o-	2d	.
.	.	.	.	2A	ne	.	.	2d	-ti-
=72	=72	=72	=72	=72	=72	=72	=72	=72	=72
2C	-du-	2r	.	2c	nos	0G	-nem,	2.e	-o-
2C	-cas	2G	in	2d	in-	.	.	.	.
.	.	.	.	.	.	.	.	4f	.
2C	in	1c	ten-	1e	-du-	.	.	[1g	-nem
2C	ten-	.	.	.	.	.	.	.	.
=73	=73	=73	=73	=73	=73	=73	=73	=73	=73
2.GG	-ta-	1.B	-ta-	2d	-cas	2r	.	1g]	.
.	.	.	.	2d	in	2G	sed	.	.
4AA	.	.	.	.	.	.	.	.	.
4BB	.	.	.	2d	ten-	2G	li-	1r	.
4C	.	.	.	.	.	.	.	.	.
2D	.	2A	.	2d	-ta-	2F	-be-	.	.
=74	=74	=74	=74	=74	=74	=74	=74	=74	=74
2GG	.	2G	.	1d	-ti-	2G	-ra	0r	.
2D	-ti-	2F	.	.	.	2.A	nos	.	.
1E	-o-	1G	-ti-	1c	-o-	.	.	.	.
.	.	.	.	.	.	4G	.	.	.
.	.	.	.	.	.	[2G	a	.	.
=75	=75	=75	=75	=75	=75	=75	=75	=75	=75
0D	-nem	1.A	-o-	0d	-nem,	2G]	.	1r	.
.	.	.	.	.	.	4F#i	.	.	.
.	.	.	.	.	.	4E	.	.	.
.	.	.	.	.	.	1F#i	ma-	1a	sed
.	.	2D	.	.	.	.	.	.	.
=76	=76	=76	=76	=76	=76	=76	=76	=76	=76
2.GG	sed	1D	-nem,	2r	.	0G	-lo.	1.b	li-
.	.	.	.	2d	sed	.	.	.	.
4AA	.	.	.	.	.	.	.	.	.
2BB	li-	2r	.	2d	li-	.	.	.	.
2C	-be-	2C	sed	2c	-be-	.	.	2a	-be-
=	=	=	=	=	=	=	=	=	=
2GG	-ra	2G	li-	2d	-ra	0r	.	1.g	-ra
2.C	nos	2G	-be-	2.e	nos	.	.	.	.
=-	=-	=-	=-	=-	=-	=-	=-	=-	=-
*	*	*M3/3%2	*	*	*	*	*	*	*
*	*	*met(3)	*	*	*	*	*	*	*
*	*	*Xtuplet	*	*	*	*	*	*	*
.	.	3E	-ra	.	.	.	.	.	.
4BB	.	.	.	4d	.	.	.	.	.
.	.	3F	.	.	.	.	.	.	.
2GG	a	.	.	[2d	a	.	.	2g	nos
.	.	3G	.	.	.	.	.	.	.
=	=	=	=	=	=	=	=	=	=
1D	ma-	3D	.	2d]	.	1F	A-	2f	a
.	.	3E	.	.	.	.	.	.	.
.	.	.	.	4c	.	.	.	2.a	ma-
.	.	3F	.	.	.	.	.	.	.
.	.	.	.	4B	.	.	.	.	.
=-	=-	=-	=-	=-	=-	=-	=-	=-	=-
*	*	*tuplet	*	*	*	*	*	*	*
*	*	*M2/1	*	*	*	*	*	*	*
*	*	*met(C|)	*	*	*	*	*	*	*
1E	.	1C	nos	1c	ma-	1G	.	.	.
.	.	.	.	.	.	.	.	4g	.
.	.	.	.	.	.	.	.	[2g	-lo
=77	=77	=77	=77	=77	=77	=77	=77	=77	=77
0D	-lo.	2r	.	0d	-lo.	0A	.	2g]	.
.	.	2.F	a	.	.	.	.	4f#i	.
.	.	.	.	.	.	.	.	4e	.
.	.	.	.	.	.	.	.	1f#i	A-
.	.	4G	.	.	.	.	.	.	.
.	.	2A	.	.	.	.	.	.	.
=78	=78	=78	=78	=78	=78	=78	=78	=78	=78
1GG	A-	2.B-i	ma-	0r	.	[0Gl	-men.	[0gl	-men.
.	.	4A	.	.	.	.	.	.	.
[1C	.	4G	.	.	.	.	.	.	.
.	.	4F	.	.	.	.	.	.	.
.	.	[2E	.	.	.	.	.	.	.
=79	=79	=79	=79	=79	=79	=79	=79	=79	=79
2C]	.	4E]	.	1c	A-	0G_	.	0g_	.
.	.	4D	.	.	.	.	.	.	.
4BB	.	4E	.	.	.	.	.	.	.
4AA	.	4F	.	.	.	.	.	.	.
1BB	.	1D	-lo.	1d	.	.	.	.	.
=80	=80	=80	=80	=80	=80	=80	=80	=80	=80
0C	.	4C	A-	0e	.	0G_	.	0g_	.
.	.	4D	.	.	.	.	.	.	.
.	.	4E	.	.	.	.	.	.	.
.	.	4F	.	.	.	.	.	.	.
.	.	4G	.	.	.	.	.	.	.
.	.	4C	.	.	.	.	.	.	.
.	.	[2c	.	.	.	.	.	.	.
=81	=81	=81	=81	=81	=81	=81	=81	=81	=81
[0GGl	-men.	2c]	.	[0dl	-men.	0G_	.	0g_	.
.	.	4B	.	.	.	.	.	.	.
.	.	4A	.	.	.	.	.	.	.
.	.	1B	.	.	.	.	.	.	.
=82	=82	=82	=82	=82	=82	=82	=82	=82	=82
00GG]	.	00Bl	-men.	00d]	.	00G]	.	00g]	.
==	==	==	==	==	==	==	==	==	==
*-	*-	*-	*-	*-	*-	*-	*-	*-	*-
!!!system-decoration: [*]
!!!RDF**kern: i = editorial accidental
!!!RDF**kern: l = terminal long
!!!ENC: Benjamin Ory
!!!END: 2024/2/11
!!!EED: Benjamin Ory
!!!EEV: 2024/2/11
!!!YEC: Copyright 2024 Benjamin Ory, All Rights Reserved
!!!ONB: Translated from MusicXML on 2024/02/11
